X:1
T:He Keeps Me Singing
T:He Keeps Me Singing
T:Luther Burgess Bridgers
T:Luther Burgess Bridgers, 1910
T:Public Domain Courtesy of the Cyber Hymnal™
T:Public Domain Courtesy of the Cyber Hymnal™
C:Luther Burgess Bridgers
Z:Public Domain
Z:Courtesy of the Cyber Hymnal™
%%score ( 1 2 ) ( 3 4 )
L:1/8
Q:1/4=110
M:4/4
K:Ab
V:1 treble 
V:2 treble 
V:3 bass 
V:4 bass 
V:1
 [Ec][Ec][=D=B][Ec] [F_d]2 [Ec]2 | [=Dc]2 [DB]2 [DF]4 | [EG][FA][^F=A][GB] [Ge]2 [Ed]2 | (c4 d4) | %4
w: 1.~There’s with- in my heart a|mel- o- dy|Je- sus whis- pers sweet and|low, *|
w: 2.~All my life was wrecked by|sin and strife,|Dis- cord filled my heart with|pain, *|
w: 3.~Feast- ing on the rich- es|of His grace,|Rest- ing ’neath His shel- tering|wing, *|
w: 4.~Though some- times He leads through|wa- ters deep,|Tri- als fall a- cross the|way, *|
w: 5.~Soon He’s com- ing back to|wel- come me,|Far be- yond the star- ry|sky; *|
 [CE][Ec][D=B][Ec] [Fd]2 [Ec]2 | [=Dc]2 [DB]2 [DF]4 | [EG][Ee][Ed][EG] [Ec]2 [DB]2 | [CA]6 z2 || %8
w: Fear not, I am with thee,|peace, be still,|In all of life’s ebb and|flow.|
w: Je- sus swept across the brok-|en strings, Stir-|red the slum- bering chords a-|gain.|
w: Al- ways look- ing on His|smil- ing face,|That is why I shout and|sing.|
w: Though some- times the path seems|rough and steep,|See His foot- prints all the|way.|
w: I shall wing my flight to|worlds un- known,|I shall reign with Him on|high.|
"^Refrain" [CE]2 [CF]2 [CG]2 [EA]2 | [Ed]4 [EG]4 | [Ge]2 [GB]2 [Ge]2 [G=B]2 | [Ac]6 z2 | %12
w: ||||
w: ||||
w: Je- sus, Je- sus,|Je- sus,|Sweet- est name I|know,|
w: ||||
w: ||||
 [CE]2 [CF]2 [CG]2 [EA]2 | [FB]4 [DF]4 | [EG][Ee][Ed][EG] [Ec]2 [DB]2 | [CA]6 z2 |] %16
w: ||||
w: ||||
w: Fills my ev- ery|long- ing,|Keeps me sing- ing as I|go.|
w: ||||
w: ||||
V:2
 x8 | x8 | x8 | E6 x2 | x8 | x8 | x8 | x8 || x8 | x8 | x8 | x8 | x8 | x8 | x8 | x8 |] %16
V:3
 [A,,A,][A,,A,][A,,A,][A,,A,] [A,,A,]2 [A,,A,]2 | [B,,A,]2 [B,,A,]2 [B,,A,]4 | %2
 [E,B,][E,B,][E,B,][E,B,] [E,B,]2 [E,G,]2 | (A,4 G,4) | %4
 [A,,A,][A,,A,][A,,A,][A,,A,] [A,,A,]2 [A,,A,]2 | [B,,A,]2 [B,,A,]2 [B,,A,]4 | %6
 [E,B,][E,G,][E,G,][E,B,] [E,A,]2 [E,G,]2 | [A,,A,]6 z2 || [A,,A,]2 [A,,A,]2 [A,,A,]2 [C,A,]2 | %9
 [B,,G,]4 [E,B,]4 | [E,B,]2 [E,E]2 [E,B,]2 [E,E]2 | [A,E]6 z2 | %12
 [A,,A,]2 [A,,A,]2 [A,,A,]2 [C,A,]2 | [D,A,]4 [D,B,]4 | [E,B,][E,G,][E,G,][E,B,] [E,A,]2 [E,G,]2 | %15
 [A,,A,]6 z2 |] %16
V:4
 x8 | x8 | x8 | E,6 x2 | x8 | x8 | x8 | x8 || x8 | x8 | x8 | x8 | x8 | x8 | x8 | x8 |] %16

